Sources/FrostedUI/Resources/Icons.xcassets/plane20.imageset/plane-20.svg

<svg width="20" height="20" viewBox="0 0 20 20" fill="none" xmlns="http://www.w3.org/2000/svg" data-fui-icon="true">
  <path
    d="M9.9657 2.16992C10.2497 2.16992 10.5095 2.33098 10.6366 2.58496L13.1268 7.56445H16.4393C17.7844 7.56453 18.8748 8.65495 18.8749 10C18.8748 11.345 17.7844 12.4355 16.4393 12.4355H13.1268L10.6366 17.415L9.9657 17.0791V17.0801L10.6366 17.415C10.5095 17.6691 10.2497 17.8301 9.9657 17.8301H7.94324C7.71235 17.83 7.49451 17.723 7.35242 17.541C7.21039 17.359 7.1597 17.1214 7.2157 16.8975L8.33093 12.4355H5.89441L4.0907 14.2383C3.95005 14.3789 3.75934 14.458 3.56042 14.458H1.87488C1.63028 14.458 1.40097 14.339 1.26062 14.1387C1.1204 13.9384 1.08631 13.682 1.1698 13.4521L2.42468 9.99902L1.1698 6.54785C1.0863 6.31804 1.12041 6.06164 1.26062 5.86133C1.40097 5.66101 1.63028 5.54104 1.87488 5.54102H3.56042C3.75918 5.54102 3.95008 5.6203 4.0907 5.76074L5.89441 7.56445H8.33191L7.2157 3.10156C7.15986 2.87764 7.21038 2.63992 7.35242 2.45801C7.49452 2.27627 7.71253 2.16998 7.94324 2.16992H9.9657ZM10.0194 8.13184L9.29187 8.31348V8.31445L10.0194 8.13184C10.0754 8.35586 10.0248 8.59336 9.88269 8.77539C9.74056 8.95743 9.52282 9.06445 9.29187 9.06445H5.58386C5.38498 9.06443 5.19325 8.98536 5.05261 8.84473L5.58386 8.31445V8.31348L5.05261 8.84473L3.24988 7.04102H2.94617L3.92859 9.74316C3.98874 9.90858 3.98863 10.0904 3.92859 10.2559L2.94617 12.958H3.24988L5.05261 11.1553C5.19324 11.0147 5.385 10.9356 5.58386 10.9355H9.29187C9.52261 10.9355 9.74055 11.0419 9.88269 11.2236C10.0248 11.4056 10.0753 11.6432 10.0194 11.8672L8.9032 16.3301H9.50281L11.9921 11.3496C12.1191 11.0958 12.3792 10.9357 12.663 10.9355H16.4393C16.956 10.9355 17.3748 10.5166 17.3749 10C17.3748 9.48337 16.956 9.06453 16.4393 9.06445H12.663C12.379 9.06431 12.1191 8.90339 11.9921 8.64941L9.50281 3.66992H8.90417L10.0194 8.13184Z"
    fill="currentColor"
  />
</svg>

<svg xmlns="http://www.w3.org/2000/svg" width="20" height="20" fill="none" data-fui-icon="true" viewBox="0 0 20 20"><path fill="currentColor" d="M9.966 2.17a.75.75 0 0 1 .67.415l2.49 4.98h3.313a2.436 2.436 0 0 1 0 4.87h-3.312l-2.49 4.98-.671-.336v.001l.67.335a.75.75 0 0 1-.67.415H7.943a.75.75 0 0 1-.727-.932l1.115-4.462H5.894l-1.803 1.802a.75.75 0 0 1-.53.22H1.874a.75.75 0 0 1-.705-1.006L2.425 10 1.17 6.548a.75.75 0 0 1 .705-1.007H3.56c.2 0 .39.08.53.22l1.804 1.803h2.438L7.216 3.102a.75.75 0 0 1 .727-.932zm.053 5.962-.727.181v.001za.75.75 0 0 1-.727.932H5.584a.75.75 0 0 1-.531-.22l.53-.53-.53.53L3.25 7.042h-.304l.983 2.702c.06.166.06.347 0 .513l-.983 2.702h.304l1.803-1.803c.14-.14.332-.22.53-.22h3.709a.75.75 0 0 1 .727.932L8.903 16.33h.6l2.49-4.98a.75.75 0 0 1 .67-.415h3.776a.936.936 0 0 0 0-1.87h-3.776a.75.75 0 0 1-.67-.416l-2.49-4.98h-.599z"/></svg>
